fs/bed_24_filled.svg

<svg viewBox="0 0 24 24" fill="none" xmlns="http://www.w3.org/2000/svg" height="1em" width="1em">
  <path d="M19.25 11C20.7125 11 21.9084 12.1417 21.995 13.5825L22 13.75V20.25C22 20.6642 21.6642 21 21.25 21C20.8703 21 20.5565 20.7178 20.5068 20.3518L20.5 20.25V18H3.5V20.25C3.5 20.6297 3.21785 20.9435 2.85177 20.9932L2.75 21C2.3703 21 2.05651 20.7178 2.00685 20.3518L2 20.25V13.75C2 12.2875 3.1417 11.0916 4.58248 11.005L4.75 11H19.25ZM6.75 4H17.25C18.7125 4 19.9084 5.1417 19.995 6.58248L20 6.75V10H17L16.9933 9.88338C16.94 9.4243 16.5757 9.06005 16.1166 9.00673L16 9H14C13.4872 9 13.0645 9.38604 13.0067 9.88338L13 10H11L10.9933 9.88338C10.94 9.4243 10.5757 9.06005 10.1166 9.00673L10 9H8C7.48716 9 7.06449 9.38604 7.00673 9.88338L7 10H4V6.75C4 5.28747 5.1417 4.0916 6.58248 4.00502L6.75 4Z" fill="#212121"/>
</svg>

<svg viewBox="0 0 24 24" fill="none" xmlns="http://www.w3.org/2000/svg" height="1em" width="1em">
  <path d="M19.25 11a2.75 2.75 0 0 1 2.745 2.582l.005.168v6.5a.75.75 0 0 1-1.493.102l-.007-.102V18h-17v2.25a.75.75 0 0 1-.648.743L2.75 21a.75.75 0 0 1-.743-.648L2 20.25v-6.5a2.75 2.75 0 0 1 2.582-2.745L4.75 11h14.5ZM6.75 4h10.5a2.75 2.75 0 0 1 2.745 2.582L20 6.75V10h-3l-.007-.117a1 1 0 0 0-.876-.876L16 9h-2a1 1 0 0 0-.993.883L13 10h-2l-.007-.117a1 1 0 0 0-.876-.876L10 9H8a1 1 0 0 0-.993.883L7 10H4V6.75a2.75 2.75 0 0 1 2.582-2.745L6.75 4Z" fill="#212121"/>
</svg>
